!!!!SEGMENT: Jom2001-Noe_noe_hodie_salvator_mundi.krn
!!!id: Jom2001
!!!AGN: Motet
!!!SCT: Sherr (1989)
!!!voices: 4
!!!COM: Jachet of Mantua
!!!OTL: Noe noe hodie salvator mundi
**kern	**kern	**kern	**kern
*part4	*part3	*part2	*part1
*staff4	*staff3	*staff2	*staff1
*I"Bassus	*I"Tenor	*I"Altus	*I"Superius
*I'B	*I'T	*I'A	*I'S
*clefF4	*clefGv2	*clefGv2	*clefG2
*k[]	*k[]	*k[]	*k[]
*C:	*C:	*C:	*C:
*M2/1	*M2/1	*M2/1	*M2/1
*met(C|)	*met(C|)	*met(C|)	*met(C|)
!!section: Prima pars: Noe noe hodie salvator mundi
!!!OMD: Prima pars: Noe noe hodie salvator mundi
=1	=1	=1	=1
0r	0r	1D	0r
.	.	2F	.
.	.	2E	.
=2	=2	=2	=2
0r	0r	2F	0r
.	.	2G	.
.	.	1A	.
=3	=3	=3	=3
0r	0r	1d	1d
.	.	2d	2f
.	.	2c	2e
=4	=4	=4	=4
0r	0r	2d	2f
.	.	2B	2g
.	.	2A	1a
.	.	2D	.
=5	=5	=5	=5
1D	0r	4F	1a
.	.	4E	.
.	.	4F	.
.	.	4G	.
2F	.	2A	2a
2E	.	[2e	2g
=6	=6	=6	=6
2F	0r	4e]	2a
.	.	4d	.
2G	.	1d	2f
1A	.	.	1e
.	.	2c#i	.
=7	=7	=7	=7
1D	1D	1d	0r
2D	2F	1r	.
2C	2E	.	.
=8	=8	=8	=8
2D	2F	1D	0r
2BB	2G	.	.
1AA	1A	2F	.
.	.	2E	.
=9	=9	=9	=9
0r	1d	2F	1d
.	.	2G	.
.	2d	1A	2f
.	2c	.	2e
=10	=10	=10	=10
0r	2d	1d	2f
.	2B	.	2g
.	1A	2d	1a
.	.	2c	.
=11	=11	=11	=11
1D	0r	2d	1a
.	.	2B	.
2F	.	2A	2a
2E	.	[2e	2g
=12	=12	=12	=12
2F	0r	4e]	2a
.	.	4d	.
2G	.	1d	2f
1A	.	.	1e
.	.	2c#i	.
=13	=13	=13	=13
1D	1D	1d	1a
2D	2F	1r	2.a
2C	2E	.	.
.	.	.	4g
=14	=14	=14	=14
2D	2F	1D	2f
2BB	2G	.	4e
.	.	.	4d
1AA	1A	2F	2c
.	.	2E	[2e
=15	=15	=15	=15
1r	1D	2.F	4e]
.	.	.	4d
.	.	.	1d
.	.	4G	.
1AA	1E	2A	.
.	.	2A	2c#i
=16	=16	=16	=16
1.D	1r	2.A	0d
.	.	4G	.
.	1D	2A	.
2D	.	2F	.
=17	=17	=17	=17
2C	1.A	1E	0r
2AA	.	.	.
2C	.	1r	.
2D	2A	.	.
=18	=18	=18	=18
1.E	2G	0r	0r
.	2E	.	.
.	2G	.	.
2F	2A	.	.
=19	=19	=19	=19
1G	1.B	0r	0r
1E	.	.	.
.	2c	.	.
=20	=20	=20	=20
[0D	1d	1A	0r
.	1B	[1d	.
=21	=21	=21	=21
1D]	[0A	2d]	1d
.	.	2d	.
2r	.	2c	[1a
2F	.	2A	.
=22	=22	=22	=22
1F	1A]	2c	2a]
.	.	2d	2a
[1C	2r	[1e	2g
.	2c	.	2e
=23	=23	=23	=23
1C]	1c	2e]	2g
.	.	2f	2a
1r	[1G	1g	[1b
=24	=24	=24	=24
1r	0G]	1e	2b]
.	.	.	2cc
2r	.	[1d	1dd
2G	.	.	.
=25	=25	=25	=25
1G	2r	1d]	1b
.	2d	.	.
1D	1d	2r	[1a
.	.	2f	.
=26	=26	=26	=26
2r	0A	1f	1a]
2F	.	.	.
1F	.	[1c	2r
.	.	.	2cc
=27	=27	=27	=27
[0C	2r	1c]	1cc
.	2c	.	.
.	1c	2r	1g
.	.	2c	.
=28	=28	=28	=28
1C]	2.G	1c	2r
.	.	.	2g
.	4A	.	.
2r	1B	1G	1g
2G	.	.	.
=29	=29	=29	=29
1G	1B	2r	2.d
.	.	2d	.
.	.	.	4e
2.D	2A	1d	4f
.	.	.	4g
.	[2d	.	[2a
4E	.	.	.
=30	=30	=30	=30
1F	2d]	2.A	4a]
.	.	.	4b
.	2c	.	2.cc
.	.	4B	.
1F	1A	2c	.
.	.	.	4b
.	.	2d	[2a
=31	=31	=31	=31
1E	1B	2e	2a]
.	.	1E	2g#i
2AA	1A	.	2.a
[2D	.	[2F	.
.	.	.	4g
=32	=32	=32	=32
2D]	2D	2F]	2f
1C	1G	2G	2.e
.	.	2E	.
.	.	.	4c
2AA	2F	[2A	[2f
=33	=33	=33	=33
1BB-X	1D	2A]	4f]
.	.	.	4e
.	.	2G	1d
1AA	1E	1A	.
.	.	.	2c#i
=34	=34	=34	=34
2BB	2D	1r	1d
2GG	1G	.	.
1D	.	1A	1r
.	2F	.	.
=35	=35	=35	=35
1GG	1G	1B	1d
[1D	2F	1d	1f
.	2D	.	.
=36	=36	=36	=36
0D]	2.F	1d	1a
.	4G	.	.
.	[1A	2d	1a
.	.	[2d	.
=37	=37	=37	=37
0r	1A]	2d]	2a
.	.	2c	1a
.	1r	2d	.
.	.	2e	2g
=38	=38	=38	=38
0r	0r	2f	2a
.	.	4e	2b
.	.	4d	.
.	.	4c	2.cc
.	.	4d	.
.	.	[2e	.
.	.	.	8bL
.	.	.	8aJ
=39	=39	=39	=39
0r	0r	4e]	4g
.	.	4A	4a
.	.	2.d	2.b
.	.	4c	4a
.	.	4B	[2a
.	.	4A	.
=40	=40	=40	=40
0r	0r	1B	2a]
.	.	.	2g#i
.	.	2r	1a
.	.	2A	.
=41	=41	=41	=41
0r	0r	2c	2r
.	.	2c	2e
.	.	2B	1g
.	.	2B	.
=42	=42	=42	=42
0r	0r	2A	1a
.	.	4D	.
.	.	4E	.
.	.	4F	2a
.	.	4G	.
.	.	2A	2a
=43	=43	=43	=43
0r	0r	4D	2a
.	.	4E	.
.	.	4F	2a
.	.	4G	.
.	.	4A	2a
.	.	4B	.
.	.	4c	[2g
.	.	4d	.
=44	=44	=44	=44
0r	1r	2e	2g]
.	.	1d	2f
.	2r	.	1e
.	2E	2c	.
=45	=45	=45	=45
1r	1G	1B	1d
1AA	1A	2A	1r
.	.	4G	.
.	.	4F	.
=46	=46	=46	=46
1C	0A	1E	0r
2D	.	2F	.
[2D	.	2D	.
=47	=47	=47	=47
2D]	1A	1F	0r
2D	.	.	.
2D	2r	1E	.
2C	[2A	.	.
=48	=48	=48	=48
2D	2A]	0r	0r
2E	2G	.	.
2F	2A	.	.
4E	2B	.	.
4D	.	.	.
=49	=49	=49	=49
4C	2.c	0r	0r
4D	.	.	.
2.E	.	.	.
.	8BL	.	.
.	8AJ	.	.
.	4G	.	.
4AA	4A	.	.
[2D	[2B	.	.
=50	=50	=50	=50
4D]	4B]	0r	0r
4C	4A	.	.
4BB	1A	.	.
4AA	.	.	.
1BB	.	.	.
.	2G#i	.	.
=51	=51	=51	=51
0AA	1A	2r	0r
.	.	2A	.
.	2r	1c	.
.	2E	.	.
=52	=52	=52	=52
0r	1G	1d	1r
.	1A	2c	1e
.	.	4B	.
.	.	4A	.
=53	=53	=53	=53
1r	2G	1B	1g
.	4F	.	.
.	4E	.	.
2r	2F	1A	1a
2AA	[2E	.	.
=54	=54	=54	=54
1C	2E]	1r	2.g
.	1A	.	.
.	.	.	8fL
.	.	.	8eJ
1D	.	2r	1f
.	2F	2A	.
=55	=55	=55	=55
2.C	2G	1c	2e
.	1E	.	1a
8BBL	.	.	.
8AAJ	.	.	.
1BB	.	1d	.
.	2D	.	2g#i
=56	=56	=56	=56
2AA	2E	2c	2.a
1D	2F	4B	.
.	.	4A	4g
.	2D	2B	2f
2C	2E	2c	[2e
=57	=57	=57	=57
2D	2F	2A	4e]
.	.	.	4d
2GG	2G	2B	1d
1AA	1E	[1A	.
.	.	.	2c#i
=58	=58	=58	=58
1D	1D	1A]	1d
1r	1r	1r	1r
=59	=59	=59	=59
1.D	1.A	1.d	1.f
2D	2A	2d	2f
=60	=60	=60	=60
1GG	1B	1d	1g
[1C	2G	2.c	1e
.	[2G	.	.
.	.	4d	.
=61	=61	=61	=61
1C]	2G]	0e	1.g
.	2G	.	.
[1C	2.c	.	.
.	.	.	2g
.	4B	.	.
=62	=62	=62	=62
2C]	2A	2r	0cc
2C	2G	1c	.
[1F	2.A	.	.
.	.	2c	.
.	4B	.	.
=63	=63	=63	=63
2F]	2c	1.f	1.a
2D	2.d	.	.
2F	.	.	.
.	4c	.	.
2G	4B	[2d	[2g
.	4A	.	.
=64	=64	=64	=64
1E	1G	2d]	2g]
.	.	2c#i	4f
.	.	.	4e
[1D	2A	1d	2.f
.	2d	.	.
.	.	.	4g
=65	=65	=65	=65
1D]	1d	2r	0a
.	.	2f	.
2r	[1A	1f	.
2F	.	.	.
=66	=66	=66	=66
1F	1A]	0c	2r
.	.	.	2cc
[1C	2r	.	1cc
.	2c	.	.
=67	=67	=67	=67
0C]	1c	2r	1g
.	.	2c	.
.	2.G	1c	2r
.	.	.	2g
.	4A	.	.
=68	=68	=68	=68
2r	1B	1G	1g
2G	.	.	.
1G	1B	2r	2.d
.	.	2d	.
.	.	.	4e
=69	=69	=69	=69
2.D	2A	1d	4f
.	.	.	4g
.	1d	.	2.a
4E	.	.	.
1F	.	2.A	.
.	.	.	4b
.	2c	.	[2cc
.	.	4B	.
=70	=70	=70	=70
1F	1A	2c	4cc]
.	.	.	4b
.	.	2d	1a
1E	1B	2e	.
.	.	[2E	2g#i
=71	=71	=71	=71
2AA	1A	2E]	2.a
1D	.	1F	.
.	.	.	4g
.	2D	.	2f
[2C	[2G	2G	[2e
=72	=72	=72	=72
2C]	2G]	2E	4e]
.	.	.	4c
2AA	2F	1A	2.f
1BB	1D	.	.
.	.	.	4e
.	.	2G#i	[2d
=73	=73	=73	=73
1AA	1E	1A	2d]
.	.	.	2c#i
[1Dl	[1Dl	[1Al	[1dl
=	=	=	=
00D]	00D]	00A]	00d]
=||	=||	=||	=||
*M2/1	*M2/1	*M2/1	*M2/1
*met(C|)	*met(C|)	*met(C|)	*met(C|)
!!section: Secunda pars: Angelus ad pastores ait
!!!OMD: Secunda pars: Angelus ad pastores ait
0r	0D	0r	0r
=74	=74	=74	=74
0r	1.A	0r	0r
.	2A	.	.
=75	=75	=75	=75
0AA	2A	0r	0r
.	2A	.	.
.	1c	.	.
=76	=76	=76	=76
1.D	2B	0r	0r
.	2.A	.	.
.	4G	.	.
2D	4F	.	.
.	4E	.	.
=77	=77	=77	=77
2D	4D	0r	0r
.	4E	.	.
2D	4F	.	.
.	4G	.	.
1F	4A	.	.
.	4G	.	.
.	4A	.	.
.	4B	.	.
=78	=78	=78	=78
2E	2c	0r	1r
2.D	2.B	.	.
.	.	.	[1d
4C	4A	.	.
4BB	[2A	.	.
4AA	.	.	.
=79	=79	=79	=79
1BB	2A]	0r	1d]
.	2G	.	.
2AA	2.c	.	[1a
[2F	.	.	.
.	4B	.	.
=80	=80	=80	=80
4F]	4A	1r	2a]
4E	4G	.	.
4D	2.A	.	2a
4C	.	.	.
2.D	.	[1A	2a
.	4G	.	.
.	2F	.	2a
4C	.	.	.
=81	=81	=81	=81
1AA	1E	1A]	1cc
1r	[1D	[1d	2b
.	.	.	[2a
=82	=82	=82	=82
0r	0D_	2d]	4a]
.	.	.	4g
.	.	2d	4f
.	.	.	4e
.	.	2d	4d
.	.	.	4e
.	.	2d	4f
.	.	.	4g
=83	=83	=83	=83
1r	1D]	1f	4a
.	.	.	4g
.	.	.	4a
.	.	.	4b
2r	1r	2e	2cc
2D	.	[2d	[2b
=84	=84	=84	=84
2F	0r	4d]	4b]
.	.	4c	4a
2F	.	4B	1a
.	.	4A	.
2G	.	1B	.
2G	.	.	2g#i
=85	=85	=85	=85
2D	2r	1A	1a
1F	2A	.	.
.	2c	1r	1r
2E	2c	.	.
=86	=86	=86	=86
1D	2d	0r	0r
.	2d	.	.
1F	2A	.	.
.	[2c	.	.
=87	=87	=87	=87
2E	2c]	0r	0r
2D	2B	.	.
[1F	2A	.	.
.	[2c	.	.
=88	=88	=88	=88
1F]	4c]	2r	0r
.	4B	.	.
.	1A	2A	.
1E	.	2c	.
.	2G	2c	.
=89	=89	=89	=89
1.D	1A	2d	1r
.	.	2d	.
.	2F	2A	2r
4C	4E	[2f	2a
4BB	4D	.	.
=90	=90	=90	=90
1AA	1A	2f]	2cc
.	.	2e	2cc
1r	1r	1d	2dd
.	.	.	2dd
=91	=91	=91	=91
0r	0r	1f	2a
.	.	.	1cc
.	.	2e	.
.	.	2d	2b
=92	=92	=92	=92
1F	2r	2.f	1a
.	1c	.	.
.	.	4e	.
2E	.	2c	1r
2D	2B-X	[2f	.
=93	=93	=93	=93
2.F	2A	1f]	2r
.	2.c	.	1cc
4E	.	.	.
2C	.	2e	.
.	4B	.	.
2G	2G	2d	2b
=94	=94	=94	=94
1F	1c	1f	1a
2G	2B	1e	2g
[2A	2A	.	[2cc
=95	=95	=95	=95
2A]	2c	1A	4cc]
.	.	.	4b
2D	2d	.	1a
1E	1B	2r	.
.	.	[2e	2g#i
=96	=96	=96	=96
1AA	1A	2e]	[0a
.	.	2c	.
2r	1r	2d	.
[2A	.	2e	.
=97	=97	=97	=97
2A]	0r	2A	1a]
2F	.	1d	.
2G	.	.	2r
2A	.	2c	[2a
=98	=98	=98	=98
1D	0r	1f	2a]
.	.	.	2f
1r	.	2e	2g
.	.	[2d	2a
=99	=99	=99	=99
0r	0r	2d]	2d
.	.	2c	1a
.	.	1B	.
.	.	.	2g
=100	=100	=100	=100
0r	2r	1A	1.cc
.	1A	.	.
.	.	2r	.
.	2F	[2d	4b
.	.	.	4a
=101	=101	=101	=101
1r	2G	2d]	2b
.	2A	2c	2a
2r	1D	1f	[1a
[2D	.	.	.
=102	=102	=102	=102
2D]	0r	1e	1a]
2C	.	.	.
1F	.	2A	2r
.	.	[2A	[2d
=103	=103	=103	=103
1E	2r	2A]	2d]
.	1G	2G	2c
1D	.	[1d	1f
.	2F	.	.
=104	=104	=104	=104
1GG	1B-X	1d]	1g
2AA	2A	[1c	2f
[2C	[2G	.	[2e
=105	=105	=105	=105
2C]	2G]	2c]	2e]
2D	2F	2B	1d
1AA	1E	1A	.
.	.	.	2c#i
=106	=106	=106	=106
0D	1D	0A	[0d
.	2r	.	.
.	2D	.	.
=107	=107	=107	=107
2r	2F	0r	1d]
2GG	2G	.	.
2C	1A	.	1r
2D	.	.	.
=108	=108	=108	=108
1E	2G	0r	0r
.	2G	.	.
1D	2A	.	.
.	2B	.	.
=109	=109	=109	=109
2r	1c	0r	0r
2C	.	.	.
2D	1B	.	.
2E	.	.	.
=110	=110	=110	=110
1F	1A	0r	0r
1E	2G	.	.
.	[2c	.	.
=111	=111	=111	=111
1D	2c]	0r	1r
.	2B	.	.
2C	[1c	.	2r
[2F	.	.	2c
=112	=112	=112	=112
2F]	1c]	2r	2f
2E	.	2G	2g
2.F	1r	2c	1a
.	.	2d	.
4E	.	.	.
=113	=113	=113	=113
1C	2r	1e	2g
.	2C	.	2g
1r	2F	1d	2a
.	2G	.	2b
=114	=114	=114	=114
1r	1A	2r	1cc
.	.	2c	.
2r	2G	2d	1r
2C	2G	2e	.
=115	=115	=115	=115
2.F	2.A	1f	0r
4G	4B	.	.
1A	1c	2e	.
.	.	4d	.
.	.	4c	.
=116	=116	=116	=116
1G	1B	1d	1r
2r	1e	1c	1g
2C	.	.	.
=117	=117	=117	=117
2F	1d	1r	2a
2G	.	.	2b
1A	1r	2r	1cc
.	.	2c	.
=118	=118	=118	=118
1G	2r	2d	1b
.	2G	2e	.
[1F	2.A	[1f	[1a
.	4B	.	.
=119	=119	=119	=119
2F]	2c	2f]	2a]
2C	2c	2e	2g
1D	1A	1d	1f
=120	=120	=120	=120
1AA	1A	1c	1e
1AA	1A	1c	1e
=121	=121	=121	=121
2D	2A	2d	2f
2D	2A	2d	2f
1GG	1B	1d	1g
=122	=122	=122	=122
1AA	1.A	0c	[0e
2r	.	.	.
2AA	4G	.	.
.	4F	.	.
=123	=123	=123	=123
1AA	1E	2r	1e]
.	.	2A	.
2.D	1F	1A	2r
.	.	.	2d
4C	.	.	.
=124	=124	=124	=124
2.BB	2r	2.d	1d
.	2D	.	.
4AA	.	4c	.
[1GG	1D	[1B	2.g
.	.	.	4f
=125	=125	=125	=125
1GG]	2.G	2B]	2e
.	.	2B	1d
.	4F	.	.
1AA	2E	[1A	.
.	2E	.	2c#i
=126	=126	=126	=126
2r	1D	2A]	1d
2D	.	2D	.
2D	1r	2F	1r
2C	.	2E	.
=127	=127	=127	=127
2D	1D	2F	0r
2BB	.	2G	.
1AA	2F	1A	.
.	2E	.	.
=128	=128	=128	=128
0r	2F	1d	1d
.	2G	.	.
.	1A	2d	2f
.	.	2c	2e
=129	=129	=129	=129
0r	0r	2d	2f
.	.	2B	2g
.	.	2A	1a
.	.	2D	.
=130	=130	=130	=130
1D	0r	4F	1a
.	.	4E	.
.	.	4F	.
.	.	4G	.
2F	.	2A	2a
2E	.	[2e	2g
=131	=131	=131	=131
2F	0r	4e]	2a
.	.	4d	.
2G	.	1d	2f
1A	.	.	1e
.	.	2c#i	.
=132	=132	=132	=132
1D	1D	1d	0r
2D	2F	1r	.
2C	2E	.	.
=133	=133	=133	=133
2D	2F	1D	0r
2BB	2G	.	.
1AA	1A	2F	.
.	.	2E	.
=134	=134	=134	=134
0r	1d	2F	1d
.	.	2G	.
.	2d	1A	2f
.	2c	.	2e
=135	=135	=135	=135
0r	2d	1d	2f
.	2B	.	2g
.	1A	2d	1a
.	.	2c	.
=136	=136	=136	=136
1D	0r	2d	1a
.	.	4c	.
.	.	4B	.
2F	.	2A	2a
2E	.	[2e	2g
=137	=137	=137	=137
2F	0r	4e]	2a
.	.	4d	.
2G	.	1d	2f
1A	.	.	1e
.	.	2c#i	.
=138	=138	=138	=138
1D	1D	1d	1a
2D	2F	1r	2.a
2C	2E	.	.
.	.	.	4g
=139	=139	=139	=139
2D	2F	1D	2f
2BB	2G	.	4e
.	.	.	4d
1AA	1A	2F	1c
.	.	2E	.
=140	=140	=140	=140
1D	1A	2.F	2d
.	.	.	2.f
.	.	4G	.
2D	2F	2A	.
.	.	.	4e
2GG	2G	2B-i	[2d
=141	=141	=141	=141
2AA	2E	1.A	2d]
2AA	2E	.	2c#i
1D	1D	.	1d
.	.	2D	.
=142	=142	=142	=142
1D	1A	2.F	2d
.	.	.	2.f
.	.	4G	.
2D	2F	2A	.
.	.	.	4e
2GG	2G	2B-i	[2d
=143	=143	=143	=143
2AA	2E	1A	2d]
2AA	2E	.	2c#i
1BB	1D	2F	1d
.	.	2G	.
=144	=144	=144	=144
0AA;	0E;	0A;	0c;
=145	=145	=145	=145
00Dl	00Dl	00Al	00dl
==	==	==	==
*-	*-	*-	*-
!!!system-decoration: [*]
!!!RDF**kern: i = editorial accidental
!!!RDF**kern: l = terminal long
!!!ENC: Benjamin Ory
!!!END: 2021/1/18
!!!EED: Benjamin Ory
!!!EEV: 2021/05/17
!!!YEC: Copyright 2021 Benjamin Ory, All Rights Reserved
!!!ONB: Translated from MusicXML on 2021/05/17
